Newaita/actions/24/format-list-ordered.svg

<svg height="24" viewBox="0 0 24 24" width="24" xmlns="http://www.w3.org/2000/svg"><g fill="#424242"><path d="m21.335938 5.644531h-12.40625c-.273438 0-.496094-.222656-.496094-.496093v-.992188c0-.273438.222656-.496094.496094-.496094h12.40625c.273437 0 .496093.222656.496093.496094v.992188c0 .273437-.222656.496093-.496093.496093zm0 0"/><path d="m21.335938 13.085938h-12.40625c-.273438 0-.496094-.222657-.496094-.496094v-.992188c0-.273437.222656-.496094.496094-.496094h12.40625c.273437 0 .496093.222657.496093.496094v.992188c0 .273437-.222656.496094-.496093.496094zm0 0"/><path d="m21.335938 20.53125h-12.40625c-.273438 0-.496094-.222656-.496094-.5v-.992188c0-.273437.222656-.496093.496094-.496093h12.40625c.273437 0 .496093.222656.496093.496093v.992188c0 .277344-.222656.5-.496093.5zm0 0"/><path d="m4.464844 2.171875h.496094c.136718 0 .25.109375.25.25v4.464844c0 .136719-.113282.246093-.25.246093h-.496094c-.136719 0-.246094-.109374-.246094-.246093v-4.464844c0-.140625.109375-.25.246094-.25zm0 0"/><path d="m5.707031 9.613281h.496094c.136719 0 .246094.113281.246094.25v4.464844c0 .136719-.109375.246094-.246094.246094h-.496094c-.136719 0-.25-.109375-.25-.246094v-4.464844c0-.136719.113281-.25.25-.25zm0 0"/><path d="m4.464844 17.054688h.496094c.136718 0 .25.113281.25.25v4.464843c0 .136719-.113282.25-.25.25h-.496094c-.136719 0-.246094-.113281-.246094-.25v-4.464843c0-.136719.109375-.25.246094-.25zm0 0"/><path d="m3.226562 9.613281h.496094c.136719 0 .246094.113281.246094.25v4.464844c0 .136719-.109375.246094-.246094.246094h-.496094c-.136718 0-.25-.109375-.25-.246094v-4.464844c0-.136719.113282-.25.25-.25zm0 0"/><path d="m2.234375 17.054688h.496094c.136719 0 .246093.113281.246093.25v4.464843c0 .136719-.109374.25-.246093.25h-.496094c-.140625 0-.25-.113281-.25-.25v-4.464843c0-.136719.109375-.25.25-.25zm0 0"/><path d="m6.699219 17.054688h.496093c.136719 0 .246094.113281.246094.25v4.464843c0 .136719-.109375.25-.246094.25h-.496093c-.136719 0-.25-.113281-.25-.25v-4.464843c0-.136719.113281-.25.25-.25zm0 0"/></g></svg>

<svg xmlns="http://www.w3.org/2000/svg" xmlns:xlink="http://www.w3.org/1999/xlink" width="24px" height="24px" viewBox="0 0 24 24" version="1.1">
<g id="surface1">
     <defs>
  <style id="current-color-scheme" type="text/css">
   .ColorScheme-Text { color:#424242; } .ColorScheme-Highlight { color:#eeeeee; }
  </style>
 </defs>
<path style="fill:currentColor" class="ColorScheme-Text" d="M 21.335938 5.644531 L 8.929688 5.644531 C 8.65625 5.644531 8.433594 5.421875 8.433594 5.148438 L 8.433594 4.15625 C 8.433594 3.882812 8.65625 3.660156 8.929688 3.660156 L 21.335938 3.660156 C 21.609375 3.660156 21.832031 3.882812 21.832031 4.15625 L 21.832031 5.148438 C 21.832031 5.421875 21.609375 5.644531 21.335938 5.644531 Z M 21.335938 5.644531 "/>
     <defs>
  <style id="current-color-scheme" type="text/css">
   .ColorScheme-Text { color:#424242; } .ColorScheme-Highlight { color:#eeeeee; }
  </style>
 </defs>
<path style="fill:currentColor" class="ColorScheme-Text" d="M 21.335938 13.085938 L 8.929688 13.085938 C 8.65625 13.085938 8.433594 12.863281 8.433594 12.589844 L 8.433594 11.597656 C 8.433594 11.324219 8.65625 11.101562 8.929688 11.101562 L 21.335938 11.101562 C 21.609375 11.101562 21.832031 11.324219 21.832031 11.597656 L 21.832031 12.589844 C 21.832031 12.863281 21.609375 13.085938 21.335938 13.085938 Z M 21.335938 13.085938 "/>
     <defs>
  <style id="current-color-scheme" type="text/css">
   .ColorScheme-Text { color:#424242; } .ColorScheme-Highlight { color:#eeeeee; }
  </style>
 </defs>
<path style="fill:currentColor" class="ColorScheme-Text" d="M 21.335938 20.53125 L 8.929688 20.53125 C 8.65625 20.53125 8.433594 20.308594 8.433594 20.03125 L 8.433594 19.039062 C 8.433594 18.765625 8.65625 18.542969 8.929688 18.542969 L 21.335938 18.542969 C 21.609375 18.542969 21.832031 18.765625 21.832031 19.039062 L 21.832031 20.03125 C 21.832031 20.308594 21.609375 20.53125 21.335938 20.53125 Z M 21.335938 20.53125 "/>
     <defs>
  <style id="current-color-scheme" type="text/css">
   .ColorScheme-Text { color:#424242; } .ColorScheme-Highlight { color:#eeeeee; }
  </style>
 </defs>
<path style="fill:currentColor" class="ColorScheme-Text" d="M 4.464844 2.171875 L 4.960938 2.171875 C 5.097656 2.171875 5.210938 2.28125 5.210938 2.421875 L 5.210938 6.886719 C 5.210938 7.023438 5.097656 7.132812 4.960938 7.132812 L 4.464844 7.132812 C 4.328125 7.132812 4.21875 7.023438 4.21875 6.886719 L 4.21875 2.421875 C 4.21875 2.28125 4.328125 2.171875 4.464844 2.171875 Z M 4.464844 2.171875 "/>
     <defs>
  <style id="current-color-scheme" type="text/css">
   .ColorScheme-Text { color:#424242; } .ColorScheme-Highlight { color:#eeeeee; }
  </style>
 </defs>
<path style="fill:currentColor" class="ColorScheme-Text" d="M 5.707031 9.613281 L 6.203125 9.613281 C 6.339844 9.613281 6.449219 9.726562 6.449219 9.863281 L 6.449219 14.328125 C 6.449219 14.464844 6.339844 14.574219 6.203125 14.574219 L 5.707031 14.574219 C 5.570312 14.574219 5.457031 14.464844 5.457031 14.328125 L 5.457031 9.863281 C 5.457031 9.726562 5.570312 9.613281 5.707031 9.613281 Z M 5.707031 9.613281 "/>
     <defs>
  <style id="current-color-scheme" type="text/css">
   .ColorScheme-Text { color:#424242; } .ColorScheme-Highlight { color:#eeeeee; }
  </style>
 </defs>
<path style="fill:currentColor" class="ColorScheme-Text" d="M 4.464844 17.054688 L 4.960938 17.054688 C 5.097656 17.054688 5.210938 17.167969 5.210938 17.304688 L 5.210938 21.769531 C 5.210938 21.90625 5.097656 22.019531 4.960938 22.019531 L 4.464844 22.019531 C 4.328125 22.019531 4.21875 21.90625 4.21875 21.769531 L 4.21875 17.304688 C 4.21875 17.167969 4.328125 17.054688 4.464844 17.054688 Z M 4.464844 17.054688 "/>
     <defs>
  <style id="current-color-scheme" type="text/css">
   .ColorScheme-Text { color:#424242; } .ColorScheme-Highlight { color:#eeeeee; }
  </style>
 </defs>
<path style="fill:currentColor" class="ColorScheme-Text" d="M 3.226562 9.613281 L 3.722656 9.613281 C 3.859375 9.613281 3.96875 9.726562 3.96875 9.863281 L 3.96875 14.328125 C 3.96875 14.464844 3.859375 14.574219 3.722656 14.574219 L 3.226562 14.574219 C 3.089844 14.574219 2.976562 14.464844 2.976562 14.328125 L 2.976562 9.863281 C 2.976562 9.726562 3.089844 9.613281 3.226562 9.613281 Z M 3.226562 9.613281 "/>
     <defs>
  <style id="current-color-scheme" type="text/css">
   .ColorScheme-Text { color:#424242; } .ColorScheme-Highlight { color:#eeeeee; }
  </style>
 </defs>
<path style="fill:currentColor" class="ColorScheme-Text" d="M 2.234375 17.054688 L 2.730469 17.054688 C 2.867188 17.054688 2.976562 17.167969 2.976562 17.304688 L 2.976562 21.769531 C 2.976562 21.90625 2.867188 22.019531 2.730469 22.019531 L 2.234375 22.019531 C 2.09375 22.019531 1.984375 21.90625 1.984375 21.769531 L 1.984375 17.304688 C 1.984375 17.167969 2.09375 17.054688 2.234375 17.054688 Z M 2.234375 17.054688 "/>
     <defs>
  <style id="current-color-scheme" type="text/css">
   .ColorScheme-Text { color:#424242; } .ColorScheme-Highlight { color:#eeeeee; }
  </style>
 </defs>
<path style="fill:currentColor" class="ColorScheme-Text" d="M 6.699219 17.054688 L 7.195312 17.054688 C 7.332031 17.054688 7.441406 17.167969 7.441406 17.304688 L 7.441406 21.769531 C 7.441406 21.90625 7.332031 22.019531 7.195312 22.019531 L 6.699219 22.019531 C 6.5625 22.019531 6.449219 21.90625 6.449219 21.769531 L 6.449219 17.304688 C 6.449219 17.167969 6.5625 17.054688 6.699219 17.054688 Z M 6.699219 17.054688 "/>
</g>
</svg>
